www/assets/icons/build_circle.svg

<svg xmlns="http://www.w3.org/2000/svg" width="24" height="24" viewBox="0 0 24 24" fill='currentColor'><path fill-rule="evenodd" d="M12 2C6.48 2 2 6.48 2 12s4.48 10 10 10 10-4.48 10-10S17.52 2 12 2m4.9 13.49-1.4 1.4c-.2.2-.51.2-.71 0l-3.41-3.41c-1.22.43-2.64.17-3.62-.81a3.47 3.47 0 0 1-.59-4.1l2.35 2.35 1.41-1.41-2.35-2.34c1.32-.71 2.99-.52 4.1.59.98.98 1.24 2.4.81 3.62l3.41 3.41c.19.19.19.51 0 .7" clip-rule="evenodd"/></svg>

<svg width="24" height="24" viewBox="0 0 24 24" xmlns="http://www.w3.org/2000/svg" fill='currentColor'><path fill-rule="evenodd" clip-rule="evenodd" d="M12 2C6.48 2 2 6.48 2 12C2 17.52 6.48 22 12 22C17.52 22 22 17.52 22 12C22 6.48 17.52 2 12 2ZM16.9 15.49L15.5 16.89C15.3 17.09 14.99 17.09 14.79 16.89L11.38 13.48C10.16 13.91 8.74 13.65 7.76 12.67C6.65 11.56 6.46 9.88 7.17 8.57L9.52 10.92L10.93 9.51L8.58 7.17C9.9 6.46 11.57 6.65 12.68 7.76C13.66 8.74 13.92 10.16 13.49 11.38L16.9 14.79C17.09 14.98 17.09 15.3 16.9 15.49Z"/></svg>
